svg/fluentui-system-icons/ic_fluent_glasses_off_20_filled.svg

<svg width="20" height="20" viewBox="0 0 20 20" fill="none" xmlns="http://www.w3.org/2000/svg">
<path d="M2.85355 2.14645C2.65829 1.95118 2.34171 1.95118 2.14645 2.14645C1.95118 2.34171 1.95118 2.65829 2.14645 2.85355L4.89045 5.59754L2.36172 8.52303C2.13624 8.78549 2 9.12684 2 9.5V12.5C2 13.8807 3.11929 15 4.5 15H6.5C7.88071 15 9 13.8807 9 12.5V11H10.2929L11 11.7071V12.5C11 13.8807 12.1193 15 13.5 15H14.2929L17.1464 17.8536C17.3417 18.0488 17.6583 18.0488 17.8536 17.8536C18.0488 17.6583 18.0488 17.3417 17.8536 17.1464L2.85355 2.14645ZM7.29291 8H4.13561L5.59943 6.30652L7.29291 8ZM16.7733 14.6519L11.095 8.97362C11.3081 8.40485 11.8568 8 12.5 8H15.8571L13.5701 5.34706C13.3801 5.1267 13.1036 5 12.8127 5H12C11.7239 5 11.5 4.77614 11.5 4.5C11.5 4.22386 11.7239 4 12 4H12.8127C13.3945 4 13.9476 4.25341 14.3275 4.69412L17.5324 8.41178C17.8204 8.68511 18 9.07158 18 9.5V12.5C18 13.4157 17.5077 14.2164 16.7733 14.6519ZM6.31908 4.19774L7.12331 5.00198C7.14417 5.00066 7.16514 5 7.18617 5H8C8.27614 5 8.5 4.77614 8.5 4.5C8.5 4.22386 8.27614 4 8 4H7.18617C6.88245 4 6.58658 4.06904 6.31908 4.19774Z" fill="#212121"/>
</svg>

<svg xmlns="http://www.w3.org/2000/svg" width="20" height="20"><path d="M2.854 2.146a.5.5 0 1 0-.708.708L4.89 5.598 2.362 8.523A1.494 1.494 0 0 0 2 9.5v3A2.5 2.5 0 0 0 4.5 15h2A2.5 2.5 0 0 0 9 12.5V11h1.293l.707.707v.793a2.5 2.5 0 0 0 2.5 2.5h.793l2.853 2.854a.5.5 0 0 0 .708-.708l-15-15ZM7.293 8H4.136l1.463-1.693L7.293 8Zm9.48 6.652-5.678-5.678A1.5 1.5 0 0 1 12.5 8h3.357L13.57 5.347A1 1 0 0 0 12.813 5H12a.5.5 0 0 1 0-1h.813a2 2 0 0 1 1.514.694l3.205 3.718c.288.273.468.66.468 1.088v3c0 .916-.492 1.716-1.227 2.152ZM6.32 4.198l.804.804A.996.996 0 0 1 7.186 5H8a.5.5 0 0 0 0-1h-.814a2 2 0 0 0-.867.198Z"/></svg>
